X:1
T:Title
%%score { ( 1 3 ) | 2 }
L:1/8
M:6/8
K:C
V:1 treble nm="Grand Piano"
V:3 treble 
V:2 bass 
V:1
 z3 z2[Q:1/4=81] [CE]/[DF]/ | [EG][_E^F][=EG] [Ac][GB][=FA] | [EG]3- [EG] z [_E^F]/[=EG]/ | %3
 [CFA][CF^G][CFA] [E^Fc][DFB][Fc] | d3- d z e/d/ | [Ec][CE][DF] [EG]2 [_E^F]/[=EG]/ | %6
 A^GA c2 c/c/ | cGE [EG][DF][K:bass][F,B,D] |[M:5/8] [E,C]- [E,C]3 z | %9
[M:1/8][K:treble] [G,CE]/[G,DF]/ |[M:3/4] [G,EG][A,_E^F] [G,=EG][Ge]/[Ec]/- [Ec][_EA] | G4 z2 | %12
 A^G A[Af]/d/- dc | B6 | [Ec][FB] [FA][EG] FE |[M:7/8] DFA c3 A |[M:3/4] G<G cB/A/- AB | %17
[M:5/8] [Ec]-[Ec]- [Ec]3 |] %18
V:2
 z3 z2 [C,G,]/[C,G,]/ | [C,A,][C,A,][C,G,] [C,F,][C,F,][C,A,] | [C,C]3- [C,C] z [C,C]/[C,C]/ | %3
 F,F,F, D,D,[D,A,] | [G,B,G]3- [G,B,G] z [G,B,G]/[G,B,F]/ | [C,C][C,G,][C,G,] [C,C]2 [C,C]/[C,C]/ | %6
 [F,CF][F,B,F][F,CF] [F,A,F]2 [^F,A,_E]/[F,A,E]/ | [G,E][G,E][G,C] [G,,G,][G,,G,]G,, | %8
[M:5/8] C,- C,3 z |[M:1/8] C,/C,/ |[M:3/4] C,C, C,[C,C]/[C,G,]/- [C,G,][C,^F,] | %11
 [C,G,][E,C][K:treble] [G,D] [CE]2 [A,C_E]/[G,C=E]/ | %12
 [F,CF][K:bass][F,B,F] [F,CF][F,C]/[F,A,F]/- [F,A,F][^F,A,E] | %13
 [G,D][G,D] [G,D] [G,D]2 [G,F]/[G,F]/ | [C,G,][C,A,] [C,B,][C,C] [D,B,D][E,_B,C] | %15
[M:7/8] [F,A,C][F,A,C][F,A,C] [F,A,F]3 [^F,B,_E] | %16
[M:3/4][K:treble] [G,CE]<[G,CE] [G,CE][G,DF]/[G,DF]/- [G,DF][G,DF] | %17
[M:5/8][K:bass] [C,C]-[C,C]- [C,C]3 |] %18
V:3
 x6 | x6 | x6 | x6 | x6 | x6 | x6 | x5[K:bass] x |[M:5/8] x5 |[M:1/8][K:treble] x |[M:3/4] x6 | %11
 EE F G2 ^F/G/ | x6 | z A G F2 A/B/ | x6 |[M:7/8] x7 |[M:3/4] x6 |[M:5/8] x5 |] %18

